svg/m/AO.svg

<svg width="20" height="15" viewBox="0 0 20 15" fill="none" xmlns="http://www.w3.org/2000/svg">
<mask id="mask0" mask-type="alpha" maskUnits="userSpaceOnUse" x="0" y="0" width="20" height="15">
<rect width="20" height="15" fill="white"/>
</mask>
<g mask="url(#mask0)">
<path fill-rule="evenodd" clip-rule="evenodd" d="M0 0V15H20V0H0Z" fill="#1D1D1D"/>
<mask id="mask1" mask-type="alpha" maskUnits="userSpaceOnUse" x="0" y="0" width="20" height="15">
<path fill-rule="evenodd" clip-rule="evenodd" d="M0 0V15H20V0H0Z" fill="white"/>
</mask>
<g mask="url(#mask1)">
<path fill-rule="evenodd" clip-rule="evenodd" d="M0 0V7.5H20V0H0Z" fill="#F50100"/>
<g filter="url(#filter0_d)">
<path fill-rule="evenodd" clip-rule="evenodd" d="M9.71872 8.37008C10.2032 7.77132 10.355 6.99729 10.355 6.51428C10.355 3.94053 7.1438 2.51678 7.1438 2.51678C9.35155 2.51678 11.8105 4.30656 11.8105 6.51428C11.8105 7.44909 11.4896 8.31645 10.952 9.00589C11.9359 9.49668 12.7686 9.87968 12.7686 9.87968C13.0775 10.0823 13.1639 10.6225 12.9614 10.9316C12.7587 11.2405 12.3438 11.3267 12.035 11.1243C12.035 11.1243 11.245 10.657 10.7635 10.3414C10.5429 10.1968 10.2878 10.04 10.0162 9.87936C9.38449 10.3046 8.62711 10.5537 7.81289 10.5537C7.81289 10.5537 4.8772 10.1941 4.96121 8.68875C4.96121 8.68875 5.67191 9.2324 7.76261 9.2324C8.09532 9.2324 8.38779 9.1858 8.6444 9.10391C7.73884 8.60976 6.97087 8.21808 6.97087 8.21808C6.66175 8.01555 5.8579 6.98862 6.06049 6.67953C6.26315 6.3706 7.48836 6.71982 7.79725 6.9223C7.79725 6.9223 8.22687 7.51232 8.83319 7.87306C9.10108 8.03243 9.40352 8.20103 9.71872 8.37008ZM8.23775 6.12651L7.6066 6.54706L7.80827 5.82676L7.34495 5.36664L7.97232 5.34176L8.23775 4.6295L8.50317 5.34176H9.12948L8.66722 5.82676L8.89872 6.50454L8.23775 6.12651Z" fill="#FCFF01"/>
<path fill-rule="evenodd" clip-rule="evenodd" d="M9.71872 8.37008C10.2032 7.77132 10.355 6.99729 10.355 6.51428C10.355 3.94053 7.1438 2.51678 7.1438 2.51678C9.35155 2.51678 11.8105 4.30656 11.8105 6.51428C11.8105 7.44909 11.4896 8.31645 10.952 9.00589C11.9359 9.49668 12.7686 9.87968 12.7686 9.87968C13.0775 10.0823 13.1639 10.6225 12.9614 10.9316C12.7587 11.2405 12.3438 11.3267 12.035 11.1243C12.035 11.1243 11.245 10.657 10.7635 10.3414C10.5429 10.1968 10.2878 10.04 10.0162 9.87936C9.38449 10.3046 8.62711 10.5537 7.81289 10.5537C7.81289 10.5537 4.8772 10.1941 4.96121 8.68875C4.96121 8.68875 5.67191 9.2324 7.76261 9.2324C8.09532 9.2324 8.38779 9.1858 8.6444 9.10391C7.73884 8.60976 6.97087 8.21808 6.97087 8.21808C6.66175 8.01555 5.8579 6.98862 6.06049 6.67953C6.26315 6.3706 7.48836 6.71982 7.79725 6.9223C7.79725 6.9223 8.22687 7.51232 8.83319 7.87306C9.10108 8.03243 9.40352 8.20103 9.71872 8.37008ZM8.23775 6.12651L7.6066 6.54706L7.80827 5.82676L7.34495 5.36664L7.97232 5.34176L8.23775 4.6295L8.50317 5.34176H9.12948L8.66722 5.82676L8.89872 6.50454L8.23775 6.12651Z" fill="#FFEA42"/>
</g>
</g>
</g>
<defs>
<filter id="filter0_d" x="4.95944" y="2.51678" width="8.11145" height="8.717" filterUnits="userSpaceOnUse" color-interpolation-filters="sRGB">
<feFlood flood-opacity="0" result="BackgroundImageFix"/>
<feColorMatrix in="SourceAlpha" type="matrix" values="0 0 0 0 0 0 0 0 0 0 0 0 0 0 0 0 0 0 127 0"/>
<feOffset/>
<feColorMatrix type="matrix" values="0 0 0 0 0 0 0 0 0 0 0 0 0 0 0 0 0 0 0.2 0"/>
<feBlend mode="normal" in2="BackgroundImageFix" result="effect1_dropShadow"/>
<feBlend mode="normal" in="SourceGraphic" in2="effect1_dropShadow" result="shape"/>
</filter>
</defs>
</svg>

<svg width="20" height="15" fill="none" xmlns="http://www.w3.org/2000/svg">
  <mask id="a" maskUnits="userSpaceOnUse" x="0" y="0" width="20" height="15">
    <path fill="#fff" d="M0 0h20v15H0z"/>
  </mask>
  <g mask="url(#a)">
    <path fill-rule="evenodd" clip-rule="evenodd" d="M0 0v15h20V0H0z" fill="#1D1D1D"/>
    <mask id="b" maskUnits="userSpaceOnUse" x="0" y="0" width="20" height="15">
      <path fill-rule="evenodd" clip-rule="evenodd" d="M0 0v15h20V0H0z" fill="#fff"/>
    </mask>
    <g mask="url(#b)" fill-rule="evenodd" clip-rule="evenodd">
      <path d="M0 0v7.5h20V0H0z" fill="#F50100"/>
      <g filter="url(#AO_-_Angola__filter0_d)">
        <path d="M9.719 8.37c.484-.599.636-1.373.636-1.856 0-2.573-3.211-3.997-3.211-3.997 2.208 0 4.666 1.79 4.666 3.997 0 .935-.32 1.802-.858 2.492.984.49 1.817.874 1.817.874.309.202.395.742.192 1.052a.67.67 0 01-.926.192s-.79-.467-1.271-.783a20.846 20.846 0 00-.748-.462 3.932 3.932 0 01-2.203.675s-2.936-.36-2.852-1.865c0 0 .71.543 2.802.543.332 0 .625-.046.881-.128-.905-.494-1.673-.886-1.673-.886-.31-.202-1.113-1.23-.91-1.538.202-.31 1.427.04 1.736.242 0 0 .43.59 1.036.951.268.16.57.328.886.497zM8.238 6.127l-.631.42.201-.72-.463-.46.627-.025.266-.712.265.712h.626l-.462.485.232.678-.661-.378z" fill="#FCFF01"/>
        <path d="M9.719 8.37c.484-.599.636-1.373.636-1.856 0-2.573-3.211-3.997-3.211-3.997 2.208 0 4.666 1.79 4.666 3.997 0 .935-.32 1.802-.858 2.492.984.49 1.817.874 1.817.874.309.202.395.742.192 1.052a.67.67 0 01-.926.192s-.79-.467-1.271-.783a20.846 20.846 0 00-.748-.462 3.932 3.932 0 01-2.203.675s-2.936-.36-2.852-1.865c0 0 .71.543 2.802.543.332 0 .625-.046.881-.128-.905-.494-1.673-.886-1.673-.886-.31-.202-1.113-1.23-.91-1.538.202-.31 1.427.04 1.736.242 0 0 .43.59 1.036.951.268.16.57.328.886.497zM8.238 6.127l-.631.42.201-.72-.463-.46.627-.025.266-.712.265.712h.626l-.462.485.232.678-.661-.378z" fill="#FFEA42"/>
      </g>
    </g>
  </g>
  <defs>
    <filter id="AO_-_Angola__filter0_d" x="4.959" y="2.517" width="8.111" height="8.717" filterUnits="userSpaceOnUse" color-interpolation-filters="sRGB">
      <feFlood flood-opacity="0" result="BackgroundImageFix"/>
      <feColorMatrix in="SourceAlpha" values="0 0 0 0 0 0 0 0 0 0 0 0 0 0 0 0 0 0 127 0"/>
      <feOffset/>
      <feColorMatrix values="0 0 0 0 0 0 0 0 0 0 0 0 0 0 0 0 0 0 0.2 0"/>
      <feBlend in2="BackgroundImageFix" result="effect1_dropShadow"/>
      <feBlend in="SourceGraphic" in2="effect1_dropShadow" result="shape"/>
    </filter>
  </defs>
</svg>
